X:584
T: SCHOENSTER SCHATZ AUF DIESER ERDE
N: E0545A
O: Europa, Mitteleuropa, Deutschland; Frankreich, Elsass
R: Liebes - Lied, Treue
M: 4/4
L: 1/16
K: G
 | G4D4B4G2B2 | d4d4d2c2c4 |
B6A2B4e4 | d4c2B2A8 |
d6c2B4d4 | e3dc3BB2A2A4 |
d6c2B4e4 | d3cB3AG4z4 |
d6c2B4d4 | e3dc3BB2A2A4 |
d6c2B4e4 | d3cB3AG4z4

@@@ Tune index: 4234
